X: 3146
T: BLAIR ATHOLE
Q: "Reel."
R: Reel.
%R: reel
B: James Kerr "Merry Melodies" v.3 p.17 #146
Z: 2016 John Chambers <jc:trillian.mit.edu>
M: C
L: 1/8
K: Am
uE2 |\
A2(AB) AGEG  | ABcd edcB |\
A2(AB) AGE^F | GABc dBGB |\
A2(AB) AGEG  | ABcd e2a2 |\
gedB   GABc  | c2A2 A2 |]
e2 |\
a2(ab) agec | ABcd ecBA |\
g2(ga) gedB | GABc dBAG |\
a2(ab) agec | ABcd e2a2 |\
gedB   GABd | c2A2 A2 |]

%%sep 1 1 500
%%sep 1 1 500

